flaticon/stationery/books.svg

<svg xmlns="http://www.w3.org/2000/svg" width="32" height="32" viewBox="0 0 24 24">
    <path d="M23.875 17.527344C24.007812 17.378906 24.085938 16.730469 23.492188 16.679688L3.660156 16.679688C1.640625 16.679688 0 18.324219 0 20.339844 0 22.359375 1.640625 24 3.660156 24L23.492188 24C24.191406 23.921875 24.007812 23.296875 23.871094 23.148438 22.164062 21.261719 22.167969 19.476562 23.875 17.527344zM22.441406 22.980469L3.660156 22.980469C2.203125 22.980469 1.019531 21.796875 1.019531 20.339844 1.019531 18.886719 2.203125 17.703125 3.660156 17.703125L22.453125 17.703125C21.273438 19.472656 21.265625 21.242188 22.441406 22.980469zM.507812 15.660156L20.339844 15.660156C22.359375 15.660156 24 14.019531 24 12 24 9.980469 22.359375 8.339844 20.339844 8.339844L9.246094 8.339844 9.246094 7.320312 23.492188 7.320312C24.191406 7.238281 24.007812 6.617188 23.871094 6.464844 22.164062 4.578125 22.167969 2.792969 23.875.847656 24.007812.695312 24.085938.0507812 23.492188 0L3.660156 0C1.640625 0 0 1.640625 0 3.660156 0 5.675781 1.640625 7.320312 3.660156 7.320312L4.3125 7.320312 4.3125 8.339844.507812 8.339844C-.0859375 8.390625-.0078125 9.039062.125 9.1875 1.832031 11.132812 1.835938 12.917969.128906 14.804688-.0078125 14.957031-.191406 15.582031.507812 15.660156zM3.660156 6.296875C2.203125 6.296875 1.019531 5.113281 1.019531 3.660156 1.019531 2.207031 2.203125 1.019531 3.660156 1.019531L22.453125 1.019531C21.273438 2.792969 21.265625 4.5625 22.441406 6.296875L9.246094 6.296875 9.246094 3.660156C9.246094 3.378906 9.015625 3.148438 8.734375 3.148438L4.824219 3.148438C4.539062 3.148438 4.3125 3.378906 4.3125 3.660156L4.3125 6.296875zM8.222656 4.171875L8.222656 10.550781 7.09375 9.667969C7 9.59375 6.890625 9.558594 6.777344 9.558594 6.667969 9.558594 6.554688 9.59375 6.464844 9.667969L5.332031 10.550781 5.332031 4.171875zM4.3125 9.363281L4.3125 11.601562C4.28125 12.042969 4.621094 12.480469 5.136719 12L6.777344 10.71875 8.417969 12C8.957031 12.4375 9.285156 12.027344 9.246094 11.601562L9.246094 9.363281 20.339844 9.363281C21.796875 9.363281 22.980469 10.546875 22.980469 12 22.980469 13.453125 21.796875 14.636719 20.339844 14.636719L1.558594 14.636719C2.734375 12.902344 2.726562 11.132812 1.546875 9.363281zM4.3125 9.363281"/>
</svg>

<svg xmlns="http://www.w3.org/2000/svg" width="32" height="32" viewBox="0 0 24 24">
    <path d="M23.875 17.527c.133-.148.21-.797-.383-.847H3.66A3.665 3.665 0 0 0 0 20.34C0 22.36 1.64 24 3.66 24h19.832c.7-.078.516-.703.38-.852-1.708-1.886-1.704-3.671.003-5.62zm-1.434 5.453H3.661a2.642 2.642 0 0 1-2.641-2.64 2.642 2.642 0 0 1 2.64-2.637h18.793c-1.18 1.77-1.187 3.54-.012 5.277zm0 0M.508 15.66H20.34c2.02 0 3.66-1.64 3.66-3.66 0-2.02-1.64-3.66-3.66-3.66H9.246V7.32h14.246c.7-.082.516-.703.38-.855-1.708-1.887-1.704-3.672.003-5.617.133-.153.21-.797-.383-.848H3.66C1.64 0 0 1.64 0 3.66c0 2.016 1.64 3.66 3.66 3.66h.652v1.02H.509c-.594.05-.516.7-.383.848 1.707 1.945 1.71 3.73.004 5.617-.137.152-.32.777.379.855zM3.66 6.297A2.642 2.642 0 0 1 1.02 3.66a2.645 2.645 0 0 1 2.64-2.64h18.793c-1.18 1.773-1.187 3.543-.012 5.277H9.246V3.66a.513.513 0 0 0-.512-.512h-3.91a.511.511 0 0 0-.511.512v2.637zm4.563-2.125v6.379l-1.13-.883a.502.502 0 0 0-.628 0l-1.133.883V4.17zm-3.91 5.191v2.239c-.032.441.308.878.824.398l1.64-1.281L8.418 12c.539.438.867.027.828-.398V9.363H20.34A2.642 2.642 0 0 1 22.98 12a2.642 2.642 0 0 1-2.64 2.637H1.559c1.175-1.735 1.168-3.504-.012-5.274zm0 0"/>
</svg>
